svgs/sharp-light/truck-field-un.svg

<svg xmlns="http://www.w3.org/2000/svg" viewBox="0 0 640 512"><!--! Font Awesome Pro 6.6.0 by @fontawesome - https://fontawesome.com License - https://fontawesome.com/license (Commercial License) Copyright 2024 Fonticons, Inc. --><path d="M64 64l0 64 0 160 0 64 5.5 0c13.2-37.3 48.7-64 90.5-64s77.4 26.7 90.5 64L352 352l0-96 0-32 0-160L64 64zM32 352l0-64L0 288 0 128l32 0 0-64 0-32 32 0 288 0 32 0 0 32 0 32 72 0 9.1 0 4.7 7.8 72 120 .1 .2 34.1 0 32 0 0 32 0 96 16 0 16 0 0 32-16 0-16 0-32 0c0 53-43 96-96 96s-96-43-96-96l-32 0-96 0c0 53-43 96-96 96s-96-43-96-96l-32 0-16 0L0 384l0-32 16 0 16 0zM384 128l0 96 120.5 0-57.6-96L384 128zm0 128l0 96 5.5 0c13.2-37.3 48.7-64 90.5-64s77.4 26.7 90.5 64l5.5 0 0-96-192 0zM128 144l0 64c0 8.8 7.2 16 16 16s16-7.2 16-16l0-64 0-16 32 0 0 16 0 64c0 26.5-21.5 48-48 48s-48-21.5-48-48l0-64 0-16 32 0 0 16zm112-16l8 0 9.9 0 4.4 8.8L288 188.2l0-44.2 0-16 32 0 0 16 0 96 0 16-16 0-8 0-9.9 0-4.4-8.8L256 195.8l0 44.2 0 16-32 0 0-16 0-96 0-16 16 0zM224 384A64 64 0 1 0 96 384a64 64 0 1 0 128 0zm256 64a64 64 0 1 0 0-128 64 64 0 1 0 0 128z"/></svg>

<svg xmlns="http://www.w3.org/2000/svg" viewBox="0 0 640 512"><!--! Font Awesome Pro 6.5.2 by @fontawesome - https://fontawesome.com License - https://fontawesome.com/license (Commercial License) Copyright 2024 Fonticons, Inc. --><path d="M64 64v64V288v64h5.5c13.2-37.3 48.7-64 90.5-64s77.4 26.7 90.5 64H352V256 224 64H64zM32 352V288H0V128H32V64 32H64 352h32V64 96h72 9.1l4.7 7.8 72 120 .1 .2H576h32v32 96h16 16v32H624 608 576c0 53-43 96-96 96s-96-43-96-96H352 256c0 53-43 96-96 96s-96-43-96-96H32 16 0V352H16 32zM384 128v96H504.5l-57.6-96H384zm0 128v96h5.5c13.2-37.3 48.7-64 90.5-64s77.4 26.7 90.5 64H576V256H384zM128 144v64c0 8.8 7.2 16 16 16s16-7.2 16-16V144 128h32v16 64c0 26.5-21.5 48-48 48s-48-21.5-48-48V144 128h32v16zm112-16h8 9.9l4.4 8.8L288 188.2V144 128h32v16 96 16H304h-8-9.9l-4.4-8.8L256 195.8V240v16H224V240 144 128h16zM224 384A64 64 0 1 0 96 384a64 64 0 1 0 128 0zm256 64a64 64 0 1 0 0-128 64 64 0 1 0 0 128z"/></svg>
